icons/sleepy_fill.svg

<svg width="48" height="48" viewBox="0 0 48 48" fill="none" xmlns="http://www.w3.org/2000/svg">
<path d="M6 24C6 14.0589 14.0589 6 24 6V8C15.1634 8 8 15.1634 8 24C8 32.8366 15.1634 40 24 40C32.8366 40 40 32.8366 40 24C40 22.4015 39.7656 20.8577 39.3293 19.4012L41.2454 18.8264C41.7363 20.4649 42 22.2017 42 24C42 33.9411 33.9411 42 24 42C14.0589 42 6 33.9411 6 24Z" fill="black"/>
<path d="M18.5301 13.9516C18.0518 14.2278 17.8879 14.8394 18.164 15.3177C18.4402 15.796 19.0518 15.9598 19.5301 15.6837L20.4665 15.143L20.0147 18.8934C19.9694 19.2694 20.1404 19.6388 20.4565 19.8475C20.7726 20.0562 21.1795 20.0684 21.5075 19.879L24.5095 18.1458C24.9878 17.8696 25.1517 17.2581 24.8756 16.7798C24.5994 16.3015 23.9878 16.1376 23.5095 16.4137L22.2395 17.147L22.6914 13.3966C22.7367 13.0206 22.5656 12.6512 22.2495 12.4425C21.9335 12.2338 21.5266 12.2216 21.1986 12.411L18.5301 13.9516Z" fill="black"/>
<path d="M25.8172 9.29408C25.6743 8.76062 25.9909 8.21228 26.5244 8.06934L30.3881 7.03406C30.7539 6.93603 31.1438 7.05312 31.3951 7.33652C31.6464 7.61992 31.716 8.02097 31.5749 8.37249L29.5262 13.4767L31.941 12.8296C32.4744 12.6867 33.0228 13.0033 33.1657 13.5367C33.3087 14.0702 32.9921 14.6185 32.4586 14.7615L28.1119 15.9262C27.7461 16.0242 27.3562 15.9071 27.1049 15.6237C26.8536 15.3403 26.784 14.9392 26.9251 14.5877L28.9738 9.48355L27.042 10.0012C26.5085 10.1441 25.9602 9.82755 25.8172 9.29408Z" fill="black"/>
<path d="M36.5556 6C36.0033 6 35.5556 6.44772 35.5556 7C35.5556 7.55228 36.0033 8 36.5556 8H39.1958L35.152 14.47C34.9593 14.7783 34.9491 15.1668 35.1254 15.4848C35.3016 15.8027 35.6365 16 36 16H41C41.5523 16 42 15.5523 42 15C42 14.4477 41.5523 14 41 14H37.8042L41.848 7.53C42.0407 7.22173 42.0509 6.83319 41.8746 6.51523C41.6984 6.19728 41.3635 6 41 6H36.5556Z" fill="black"/>
<path d="M12.8884 27.1057C12.9643 27.849 13.6309 28.4029 14.4039 28.6487C15.2116 28.9055 16.2592 28.8836 17.371 28.4025C18.5269 27.9024 19.2033 27.0055 19.503 26.1071C19.7926 25.2391 19.7526 24.2876 19.3505 23.6822C19.256 23.54 19.0955 23.4558 18.9248 23.459C18.7541 23.4621 18.5968 23.5521 18.5076 23.6977C17.2142 25.8092 15.3637 26.7386 13.4326 26.5571C13.2837 26.5431 13.1363 26.5965 13.0309 26.7028C12.9255 26.809 12.8732 26.9568 12.8884 27.1057Z" fill="black"/>
<path d="M32.2802 21.9097C32.5862 22.5914 32.2859 23.4043 31.7393 24.0037C31.1682 24.63 30.25 25.1348 29.0466 25.2741C27.7955 25.4189 26.7612 24.9803 26.0525 24.3522C25.3677 23.7453 24.9266 22.9012 24.9722 22.1759C24.9829 22.0055 25.0798 21.8523 25.2292 21.7697C25.3786 21.6871 25.5598 21.6864 25.7099 21.7679C27.8858 22.9497 29.953 22.8293 31.5346 21.7067C31.6566 21.6201 31.811 21.5926 31.9554 21.6319C32.0998 21.6713 32.2189 21.7732 32.2802 21.9097Z" fill="black"/>
<path d="M32.4478 31.855C30.1969 28.7708 26.8611 27.1403 23.7407 27.9764C20.6203 28.8125 18.5467 31.8924 18.1395 35.6889C18.0249 36.7578 19.0627 37.512 20.1011 37.2338L31.5215 34.1737C32.5599 33.8955 33.0815 32.7233 32.4478 31.855Z" fill="black"/>
</svg>

<svg
  xmlns="http://www.w3.org/2000/svg"
  width="24"
  height="24"
  viewBox="0 0 24 24"
  fill="none"
  stroke="currentColor"
  stroke-width="2"
  stroke-linecap="round"
  stroke-linejoin="round"
>
  <path d="M6 24c0-9.941 8.059-18 18-18v2C15.163 8 8 15.163 8 24s7.163 16 16 16 16-7.163 16-16c0-1.599-.234-3.142-.67-4.599l1.915-.575A18 18 0 0 1 42 24c0 9.941-8.059 18-18 18S6 33.941 6 24" />
  <path d="M18.53 13.952a1 1 0 0 0 1 1.732l.936-.541-.451 3.75a1 1 0 0 0 1.492.986l3.002-1.733a1 1 0 1 0-1-1.732l-1.27.733.452-3.75a1 1 0 0 0-1.492-.986z" />
  <path d="M25.817 9.294a1 1 0 0 1 .707-1.225l3.864-1.035a1 1 0 0 1 1.187 1.338l-2.049 5.105 2.415-.647a1 1 0 0 1 .518 1.931l-4.347 1.165a1 1 0 0 1-1.187-1.338l2.049-5.104-1.932.517a1 1 0 0 1-1.225-.707" />
  <path d="M36.556 6a1 1 0 1 0 0 2h2.64l-4.044 6.47A1 1 0 0 0 36 16h5a1 1 0 1 0 0-2h-3.196l4.044-6.47A1 1 0 0 0 41 6z" />
  <path d="M12.888 27.106c.076.743.743 1.297 1.516 1.543.808.256 1.855.235 2.967-.247a3.8 3.8 0 0 0 2.132-2.295c.29-.868.25-1.82-.152-2.425a.5.5 0 0 0-.843.016c-1.294 2.111-3.144 3.04-5.075 2.86a.5.5 0 0 0-.545.548" />
  <path d="M32.28 21.91c.306.681.006 1.494-.54 2.094-.572.626-1.49 1.13-2.693 1.27a3.8 3.8 0 0 1-2.995-.922c-.684-.607-1.125-1.45-1.08-2.176a.5.5 0 0 1 .738-.408c2.176 1.182 4.243 1.061 5.825-.061a.5.5 0 0 1 .745.203" />
  <path d="M32.448 31.855c-2.251-3.084-5.587-4.715-8.707-3.879-3.12.837-5.194 3.916-5.601 7.713-.115 1.069.923 1.823 1.961 1.545l11.42-3.06c1.039-.279 1.56-1.45.927-2.319" />
</svg>
